Newaita/actions/24/filename-discnumber-amarok.svg

<svg height="24" viewBox="0 0 24 24" width="24" xmlns="http://www.w3.org/2000/svg"><g fill="#424242"><path d="m7.9375 21.523438v-18.855469c0-.273438-.222656-.496094-.496094-.496094h-.992187c-.273438 0-.496094.222656-.496094.496094v18.855469c0 .273437.222656.496093.496094.496093h.992187c.273438 0 .496094-.222656.496094-.496093zm0 0"/><path d="m17.859375 21.523438v-18.855469c0-.273438-.21875-.496094-.496094-.496094h-.992187c-.273438 0-.496094.222656-.496094.496094v18.855469c0 .273437.222656.496093.496094.496093h.992187c.277344 0 .496094-.222656.496094-.496093zm0 0"/><path d="m2.480469 8.125h18.855469c.273437 0 .496093-.222656.496093-.496094v-.992187c0-.273438-.222656-.496094-.496093-.496094h-18.855469c-.273438 0-.496094.222656-.496094.496094v.992187c0 .273438.222656.496094.496094.496094zm0 0"/><path d="m2.480469 18.046875h18.855469c.273437 0 .496093-.21875.496093-.496094v-.992187c0-.273438-.222656-.496094-.496093-.496094h-18.855469c-.273438 0-.496094.222656-.496094.496094v.992187c0 .277344.222656.496094.496094.496094zm0 0"/></g></svg>

<svg xmlns="http://www.w3.org/2000/svg" xmlns:xlink="http://www.w3.org/1999/xlink" width="24px" height="24px" viewBox="0 0 24 24" version="1.1">
<g id="surface1">
     <defs>
  <style id="current-color-scheme" type="text/css">
   .ColorScheme-Text { color:#424242; } .ColorScheme-Highlight { color:#eeeeee; }
  </style>
 </defs>
<path style="fill:currentColor" class="ColorScheme-Text" d="M 7.9375 21.523438 L 7.9375 2.667969 C 7.9375 2.394531 7.714844 2.171875 7.441406 2.171875 L 6.449219 2.171875 C 6.175781 2.171875 5.953125 2.394531 5.953125 2.667969 L 5.953125 21.523438 C 5.953125 21.796875 6.175781 22.019531 6.449219 22.019531 L 7.441406 22.019531 C 7.714844 22.019531 7.9375 21.796875 7.9375 21.523438 Z M 7.9375 21.523438 "/>
     <defs>
  <style id="current-color-scheme" type="text/css">
   .ColorScheme-Text { color:#424242; } .ColorScheme-Highlight { color:#eeeeee; }
  </style>
 </defs>
<path style="fill:currentColor" class="ColorScheme-Text" d="M 17.859375 21.523438 L 17.859375 2.667969 C 17.859375 2.394531 17.640625 2.171875 17.363281 2.171875 L 16.371094 2.171875 C 16.097656 2.171875 15.875 2.394531 15.875 2.667969 L 15.875 21.523438 C 15.875 21.796875 16.097656 22.019531 16.371094 22.019531 L 17.363281 22.019531 C 17.640625 22.019531 17.859375 21.796875 17.859375 21.523438 Z M 17.859375 21.523438 "/>
     <defs>
  <style id="current-color-scheme" type="text/css">
   .ColorScheme-Text { color:#424242; } .ColorScheme-Highlight { color:#eeeeee; }
  </style>
 </defs>
<path style="fill:currentColor" class="ColorScheme-Text" d="M 2.480469 8.125 L 21.335938 8.125 C 21.609375 8.125 21.832031 7.902344 21.832031 7.628906 L 21.832031 6.636719 C 21.832031 6.363281 21.609375 6.140625 21.335938 6.140625 L 2.480469 6.140625 C 2.207031 6.140625 1.984375 6.363281 1.984375 6.636719 L 1.984375 7.628906 C 1.984375 7.902344 2.207031 8.125 2.480469 8.125 Z M 2.480469 8.125 "/>
     <defs>
  <style id="current-color-scheme" type="text/css">
   .ColorScheme-Text { color:#424242; } .ColorScheme-Highlight { color:#eeeeee; }
  </style>
 </defs>
<path style="fill:currentColor" class="ColorScheme-Text" d="M 2.480469 18.046875 L 21.335938 18.046875 C 21.609375 18.046875 21.832031 17.828125 21.832031 17.550781 L 21.832031 16.558594 C 21.832031 16.285156 21.609375 16.0625 21.335938 16.0625 L 2.480469 16.0625 C 2.207031 16.0625 1.984375 16.285156 1.984375 16.558594 L 1.984375 17.550781 C 1.984375 17.828125 2.207031 18.046875 2.480469 18.046875 Z M 2.480469 18.046875 "/>
</g>
</svg>
